!!!COM: Mozart, Wolfgang Amadeus
!!!OPR: Divertimento in F Major
!!!OTL:
!!!OMV: 3
!!!SCT: K 138
!!!SCA: Chronologisch-thematisches Verzeichnis sämtlicher Tonwerke Wolfgang Amade Mozarts (L. von Köchel; 1862, 2/1905, 3/1937, 1947)
!!!YOR: Breitkopf & Härtel Edition
!!!EED: Frances Bennion
!!!ENC: Frances Bennion
!!!CDT: 1756/1/27/-1791/12/5/
!!!OCY: Österreich
!!!YEC: Copyright (c) 1994, 2000 Center for Computer Assisted Research in the Humanities
!!!YEM: Rights to all derivative editions reserved.
!!!YEM: Refer to licensing agreement for further details.
!!!YEN: United States of America
**kern	**kern	**kern	**kern
*k[b-]	*k[b-]	*k[b-]	*k[b-]
*F:	*F:	*F:	*F:
*clefG	*clefG	*clefF	*clefC
*M2/4	*M2/4	*M2/4	*M2/4
*tb32	*tb32	*tb32	*tb32
=1	=1	=1	=1
4ff 4a	8r	4.r	4F
.	8f	.	.
8.ff	8a	.	4FF
.	8cc	8A	.
32ee	.	.	.
32ff	.	.	.
=2	=2	=2	=2
4.cc	16a	8c	8r
.	16b-	.	.
.	16a	8f	8F
.	16g	.	.
.	8f	16c	8A
.	.	16B-	.
8a	8r	16c	8F
.	.	16A	.
=3	=3	=3	=3
8b-	2d	8G	4G
16a	.	8g	.
16b-	.	.	.
8dd	.	[4G	8r
8f	.	.	8BB
=4	=4	=4	=4
8e	2c	8G]	4C
16d	.	8G	.
16e	.	.	.
8g	.	4E	16r
.	.	.	16B-
8c	.	.	16A
.	.	.	16G
=5	=5	=5	=5
4ff 4a	8r	4F	4F
.	8f	.	.
8.ff	8a	8r	4FF
.	8cc	8A	.
32ee	.	.	.
32ff	.	.	.
=6	=6	=6	=6
4.cc	16a	8c	8r
.	16b-	.	.
.	16a	8f	8F
.	16g	.	.
.	8f	16c	8A
.	.	16B-	.
8a	8r	16c	8F
.	.	16A	.
=7	=7	=7	=7
32b-	32g	32d	8B-
32cc	32a	32c	.
8.dd	8.b-	8.B-	.
.	.	.	8BB-
16cc	16a	8c	8C
16b-	16g	.	.
16a	16f	8c	8c
16g	16e	.	.
=8	=8	=8	=8
8f	4f	8c	4F
8c	.	8A	.
4A	4r	4F	4FF
=9	=9	=9	=9
8aa	8r	2r	2r
4dd	16f	.	.
.	16g	.	.
.	8a	.	.
8dd	8f	.	.
=10	=10	=10	=10
8ff	8r	2r	2r
4b	16d	.	.
.	16e	.	.
.	8f	.	.
8b	8d	.	.
=11	=11	=11	=11
8cc	8e	2r	2r
8dd	8B	.	.
8ee	8c	.	.
8ff	8a	.	.
=12	=12	=12	=12
4ee	8g	2r	2r
.	16d	.	.
.	16B	.	.
8dd	16G	.	.
.	16f	.	.
8r	16e	.	.
.	16d	.	.
=13	=13	=13	=13
16gg	16e	4r	4C
16ff	16f	.	.
16ee	16g	.	.
16dd	16f	.	.
16cc	16e	4c	4r
16ee	16g	.	.
16dd	16f	.	.
16cc	16e	.	.
=14	=14	=14	=14
16b	16d	4r	4GG
16a	16c	.	.
16b	16d	.	.
16cc	16e	.	.
16dd	16f	4G	4r
16b	16d	.	.
16a	16c	.	.
16g	16B	.	.
=15	=15	=15	=15
[2gg	16e	16c	8c
.	16d	16B	.
.	16e	16c	8C
.	16f	16d	.
.	16g	16e	8r
.	16f	16d	.
.	16g	16e	8C
.	16e	16c	.
=16	=16	=16	=16
2gg]	16d	16B	8G
.	16c	16A	.
.	16B	16G	8GG
.	16c	16A	.
.	16d	16B	8r
.	16c	16A	.
.	16d	16B	8GG
.	16B	16G	.
=17	=17	=17	=17
8gg#	16b	16d	8E
.	16dd	16b	.
4gg#	16ee	16cc	8e
.	16ff	16dd	.
.	16ff	16dd	8r
.	16ee	16cc	.
8gg#	16ee	16cc	8E
.	16dd	16b	.
=18	=18	=18	=18
4aa	4cc	8a	8F
.	.	8f	8F
8ff	8a	8d	8F
16ee	16g	8A	8F
16dd	16f	.	.
=19	=19	=19	=19
4cc	4e 4G	8G	8G
.	.	8G	8G
8dd	8f	8G	8G
16cc	16e	8G	8G
16b	16d	.	.
=20	=20	=20	=20
8gg#	16b	16d	8E
.	16dd	16b	.
4gg#	16ee	16cc	8e
.	16ff	16dd	.
.	16ff	16dd	8r
.	16ee	16cc	.
8gg#	16ee	16cc	8E
.	16dd	16b	.
=21	=21	=21	=21
8aa	8cc	8a	8F
8r	8r	8r	8r
8ccc	8ee	8a	8F#
8r	8r	8r	8r
=22	=22	=22	=22
4ee	4cc	8g	8G
.	.	8g	8G
8ff	8dd	8g	8G
16ee	16cc	8g	8G
16dd	16b	.	.
=23	=23	=23	=23
4cc	16cc	8G	8GG
.	16g	.	.
.	16e	8G	8GG
.	16g	.	.
8dd	8f	8G	8GG
16cc	16e	8G	8GG
16b	16d	.	.
=24	=24	=24	=24
16ee	16c	8G	8G
16cc	16e	.	.
16ee	16g	8G	8G
16gg	16cc	.	.
16gg	16ee	8G	8G
16ff	16dd	.	.
16ee	16cc	8G	8G
16dd	16b	.	.
=25	=25	=25	=25
8cc	8cc	8G	8C
8g	8e	16c	8C
.	.	16G	.
4c	4e 4G	4E	4CC
=26	=26	=26	=26
4ff 4a	8r	4.r	4F
.	8f	.	.
8.ff	8a	.	4FF
.	8cc	8A	.
32ee	.	.	.
32ff	.	.	.
=27	=27	=27	=27
4.cc	16a	8c	8r
.	16b-	.	.
.	16a	8f	8F
.	16g	.	.
.	8f	16c	8A
.	.	16B-	.
8a	8r	16c	8F
.	.	16A	.
=28	=28	=28	=28
8b-	2d	8G	4G
16a	.	8g	.
16b-	.	.	.
8dd	.	[4G	8r
8f	.	.	8BB
=29	=29	=29	=29
8e	2c	8G]	4C
16d	.	8G	.
16e	.	.	.
8g	.	4E	16r
.	.	.	16B-
8c	.	.	16A
.	.	.	16G
=30	=30	=30	=30
4ff 4a	8r	4F	4F
.	8f	.	.
8.ff	8a	8r	4FF
.	8cc	8A	.
32ee	.	.	.
32ff	.	.	.
=31	=31	=31	=31
4.cc	16a	8c	8r
.	16b-	.	.
.	16a	8f	8F
.	16g	.	.
.	8f	16c	8A
.	.	16B-	.
8a	8r	16c	8F
.	.	16A	.
=32	=32	=32	=32
32b-	32g	32d	8B-
32cc	32a	32c	.
8.dd	8.b-	8.B-	.
.	.	.	8BB-
16cc	16a	8c	8C
16b-	16g	.	.
16a	16f	8c	8c
16g	16e	.	.
=33	=33	=33	=33
8f	4f	8c	4F
8c	.	8A	.
4A	4r	4F	4FF
=34	=34	=34	=34
2aa	8r	8r	4D
.	8d	8F	.
.	8f	8d	4DD
.	8a	8f	.
=35	=35	=35	=35
2cc#	8r	8r	4EE
.	8A	8G	.
.	8g	8e	4E
.	8a	8g	.
=36	=36	=36	=36
2dd	8r	8r	4F
.	8A	8F	.
.	8f	8A	4FF
.	8a	8f	.
=37	=37	=37	=37
2bb-	8r	8r	4C#
.	8G	8E	.
.	8e	8G	4CC#
.	8g	8e	.
=38	=38	=38	=38
2gg#	8f	8B	4DD
.	8ff	8b	.
.	8r	8r	4D
.	8f	8B	.
=39	=39	=39	=39
2aa	8f#	8c	4D#
.	8cc	8f#	.
.	8r	8r	4DD#
.	8a	8f#	.
=40	=40	=40	=40
4.b	4A	8e	8EE
.	.	8e	8EE
.	4G#	8e	8EE
16a	.	8e	8EE
16b	.	.	.
=41	=41	=41	=41
4a	4A	4e 4c	8AA
.	.	.	8G
4r	4r	4r	8F
.	.	.	8E
=42	=42	=42	=42
4r	2r	4.d	8D
.	.	.	8C
[4dd	.	.	8BB-
.	.	8c	8AA
=43	=43	=43	=43
8dd]	4r	8B-	8GG
8cc	.	8A	8D
8b-	[4gg	4G	8G
8a	.	.	8F
=44	=44	=44	=44
4g	8gg]	4r	8E
.	8ff	.	8D
4r	8ee	[4a	8C#
.	8dd	.	8BB-
=45	=45	=45	=45
4r	8cc#	8a]	8AA
.	4a	8g	8E
[4aa	.	8f	8A
.	8c#	8e	8G
=46	=46	=46	=46
8aa]	4d	4.d	8F
8gg	.	.	8E
8ff	[4dd	.	8D
8ee	.	16e	8C
.	.	16f	.
=47	=47	=47	=47
8dd	8dd]	8g	8BB-
8ff	8cc	8a	8AA
8ee	8b-	8b-	8GG
8dd	8f	8b	8GG#
=48	=48	=48	=48
8cc#	8e	8a	4AA
8dd	8f	8A	.
8ee	8g	8A	8r
16dd	16f	8A	8AA
16cc#	16e	.	.
=49	=49	=49	=49
4dd	4f	4A	4D
4d	4f 4A	4D	4DD
=50	=50	=50	=50
4ff 4a	8r	4.r	4F
.	8f	.	.
8.ff	8a	.	4FF
.	8cc	8A	.
32ee	.	.	.
32ff	.	.	.
=51	=51	=51	=51
4.cc	16a	8c	8r
.	16b-	.	.
.	16a	8f	8F
.	16g	.	.
.	8f	16c	8A
.	.	16B-	.
8a	8r	16c	8F
.	.	16A	.
=52	=52	=52	=52
8b-	2d	8G	4G
16a	.	8g	.
16b-	.	.	.
8dd	.	[4G	8r
8f	.	.	8BB
=53	=53	=53	=53
8e	2c	8G]	4C
16d	.	8G	.
16e	.	.	.
8g	.	4E	16r
.	.	.	16B-
8c	.	.	16A
.	.	.	16G
=54	=54	=54	=54
4ff 4a	8r	4F	4F
.	8f	.	.
8.ff	8a	8r	4FF
.	8cc	8A	.
32ee	.	.	.
32ff	.	.	.
=55	=55	=55	=55
4.cc	16a	8c	8r
.	16b-	.	.
.	16a	8f	8F
.	16g	.	.
.	8f	16c	8A
.	.	16B-	.
8a	8r	16c	8F
.	.	16A	.
=56	=56	=56	=56
32b-	32g	32d	8B-
32cc	32a	32c	.
8.dd	8.b-	8.B-	.
.	.	.	8BB-
16cc	16a	8c	8C
16b-	16g	.	.
16a	16f	8c	8c
16g	16e	.	.
=57	=57	=57	=57
8f	4f	8c	4F
8c	.	8A	.
4A	4r	4F	4FF
=58	=58	=58	=58
8aa	8a	8f	2r
8r	8r	8r	.
8bb-	8b-	8g	.
8r	8r	8r	.
=59	=59	=59	=59
8ccc	8cc	8a	8r
4.r	4.r	4.r	8F
.	.	.	8A
.	.	.	8F
=60	=60	=60	=60
8ddd	8dd	8b-	4BB-
8ddd	8dd	8b-	.
8bb-	8b-	8g	4r
8bb-	8b-	8g	.
=61	=61	=61	=61
8gg	8g	8e	8r
4.r	4.r	4.r	8C
.	.	.	8E
.	.	.	8G
=62	=62	=62	=62
8ee	8e	8b-	4c
8r	8r	8r	.
8ff	8f	8a	4r
8r	8r	8r	.
=63	=63	=63	=63
8bb-	8b-	8e	8r
4.r	4.r	4.r	8c
.	.	.	8G
.	.	.	8C
=64	=64	=64	=64
8aa	8a	8f	8F
8aa	8a	8f	8AA
8gg	8g	8e	8C
8gg	8g	8e	8C
=65	=65	=65	=65
8ff	8f	8f	8F
4.r	4.r	4.r	8C
.	.	.	8AA
.	.	.	8FF
=66	=66	=66	=66
8aa	8r	2r	4F
8r	8a	.	.
8b	8g	.	4G
8r	8f	.	.
=67	=67	=67	=67
8cc	8e	8r	4C
4.r	8d	8g	.
.	4c	8e	4r
.	.	8d	.
=68	=68	=68	=68
8gg	8r	8c	4E-
8r	8g	8B-	.
8a	8f	8A	4F
8r	8e-	8c	.
=69	=69	=69	=69
8b-	8d	8F	4BB-
4.r	8c	8f	.
.	4B-	8d	4r
.	.	8c	.
=70	=70	=70	=70
8b-	8f	8B-	8D-
8r	8r	8r	8r
8b-	8f	8B-	8D-
8r	8r	8r	8r
=71	=71	=71	=71
8bb-	8e 8G	8G	8C#
4.r	4.r	4.r	4.r
=72	=72	=72	=72
8aa	8a	8F	8D
8aa	8a	8f	8AA
8gg	8g	8f	8BB-
8gg	8g	8e	8C
=73	=73	=73	=73
4ff	4f	4f	8F
.	.	.	8C
4r	4r	4r	8AA
.	.	.	8FF
=74	=74	=74	=74
4ff 4a	8r	4.r	4F
.	8f	.	.
8.ff	8a	.	4FF
.	8cc	8A	.
32ee	.	.	.
32ff	.	.	.
=75	=75	=75	=75
4.cc	16a	8c	8r
.	16b-	.	.
.	16a	8f	8F
.	16g	.	.
.	8f	16c	8A
.	.	16B-	.
8a	8r	16c	8F
.	.	16A	.
=76	=76	=76	=76
8b-	2d	8G	4G
16a	.	8g	.
16b-	.	.	.
8dd	.	[4G	8r
8f	.	.	8BB
=77	=77	=77	=77
8e	2c	8G]	4C
16d	.	8G	.
16e	.	.	.
8g	.	4E	16r
.	.	.	16B-
8c	.	.	16A
.	.	.	16G
=78	=78	=78	=78
4ff 4a	8r	4F	4F
.	8f	.	.
8.ff	8a	8r	4FF
.	8cc	8A	.
32ee	.	.	.
32ff	.	.	.
=79	=79	=79	=79
4.cc	16a	8c	8r
.	16b-	.	.
.	16a	8f	8F
.	16g	.	.
.	8f	16c	8A
.	.	16B-	.
8a	8r	16c	8F
.	.	16A	.
=80	=80	=80	=80
32b-	32g	32d	8B-
32cc	32a	32c	.
8.dd	8.b-	8.B-	.
.	.	.	8BB-
16cc	16a	8c	8C
16b-	16g	.	.
16a	16f	8c	8c
16g	16e	.	.
=81	=81	=81	=81
8f	4f	8c	4F
8c	.	8A	.
4A	4r	4F	4FF
=82	=82	=82	=82
8ccc	16ee	8C	2r
.	16dd	.	.
4ccc	16ee	8c	.
.	16ff	.	.
.	16gg	8r	.
.	16ee	.	.
[8ccc	16gg	8B-	.
.	16ee	.	.
=83	=83	=83	=83
8ccc]	16ff	8A	2r
.	16ee	.	.
4ccc	16ff	8F	.
.	16gg	.	.
.	16aa	8r	.
.	16ff	.	.
[8ccc	16aa	8f	.
.	16ff	.	.
=84	=84	=84	=84
8ccc]	16gg	8e	2r
.	16ff	.	.
4ccc	16gg	8c	.
.	16aa	.	.
.	16bb-	8r	.
.	16gg	.	.
[8ccc	16bb-	8e	.
.	16gg	.	.
=85	=85	=85	=85
8ccc]	16aa	8f	2r
.	16gg	.	.
4ccc	16ff	8a	.
.	16ee	.	.
.	16ff	8r	.
.	16cc	.	.
8ccc	16a	8f	.
.	16f	.	.
=86	=86	=86	=86
16ee	8c	2g	8C
16ff	.	.	.
16gg	4c	.	8c
16ff	.	.	.
16ee	.	.	8r
16ff	.	.	.
16gg	[8c	.	8B-
16ee	.	.	.
=87	=87	=87	=87
16ff	8c]	2a	8A
16gg	.	.	.
16aa	4c	.	8F
16gg	.	.	.
16ff	.	.	8r
16gg	.	.	.
16aa	[8c	.	8F
16ff	.	.	.
=88	=88	=88	=88
16bb-	8c]	4.g	8E
16aa	.	.	.
16gg	4c	.	8C
16ff	.	.	.
16ee	.	.	8r
16dd	.	.	.
16cc	16e	16g	8C
16b-	16g	16e	.
=89	=89	=89	=89
4a	4f	2c	16F
.	.	.	16G
.	.	.	16A
.	.	.	16B-
4g	4e	.	8c
.	.	.	8C
=90	=90	=90	=90
4ff 4a	8r	4.r	4F
.	8f	.	.
8.ff	8a	.	4FF
.	8cc	8A	.
32ee	.	.	.
32ff	.	.	.
=91	=91	=91	=91
4.cc	16a	8c	8r
.	16b-	.	.
.	16a	8f	8F
.	16g	.	.
.	8f	16c	8A
.	.	16B-	.
8a	8r	16c	8F
.	.	16A	.
=92	=92	=92	=92
8b-	2d	8G	4G
16a	.	8g	.
16b-	.	.	.
8dd	.	[4G	8r
8f	.	.	8BB
=93	=93	=93	=93
8e	2c	8G]	4C
16d	.	8G	.
16e	.	.	.
8g	.	4E	16r
.	.	.	16B-
8c	.	.	16A
.	.	.	16G
=94	=94	=94	=94
4ff 4a	8r	4F	4F
.	8f	.	.
8.ff	8a	8r	4FF
.	8cc	8A	.
32ee	.	.	.
32ff	.	.	.
=95	=95	=95	=95
4.cc	16a	8c	8r
.	16b-	.	.
.	16a	8f	8F
.	16g	.	.
.	8f	16c	8A
.	.	16B-	.
8a	8r	16c	8F
.	.	16A	.
=96	=96	=96	=96
32b-	32g	32d	8B-
32cc	32a	32c	.
8.dd	8.b-	8.B-	.
.	.	.	8BB-
16cc	16a	8c	8C
16b-	16g	.	.
16a	16f	8c	8c
16g	16e	.	.
=97	=97	=97	=97
8f	4f	8c	4F
8c	.	8A	.
4A	4r	4F	4FF
==	==	==	==
*-	*-	*-	*-
!!!RWG1: This file contains only pitch and duration data.
!!!RWG2: Transposing instruments are not transposed.
!!!RWG3: Spines may have incompatible meters.
!!!RWG4: Durations of rests and tied notes may be interpreted.
!!!RWG: Key is interpreted using the Humdrum key tool.
!!!AFT: stage1
!!!END: 1997/04/15
!!format changes:
!!content changes:
!!public access: complete
!!!KEY: 1429856460
!!!EMD: Converted from MuseData to Humdrum Dec 16, 2000, by Andreas Kornstaedt using muse2kern.
